X:1
T:Vesper (Stainer), 77.75
T:Vesper (Stainer), 77.75
T:John Stainer, 1875
T:Public Domain Courtesy of the Cyber Hymnal™
C:John Stainer, 1875
Z:Public Domain
Z:Courtesy of the Cyber Hymnal™
%%score ( 1 2 ) ( 3 4 )
L:1/8
Q:1/4=110
M:4/4
K:Eb
V:1 treble 
V:2 treble 
V:3 bass 
V:4 bass 
V:1
 [EG]2 [DA]2 [EB]2 [Ec]2 | [Ad]2 [Ge]2 [FB]2 [DA]2 | [EG]2 [DF]2 [CE]2 [DF]2 | [EG]2 [FA]2 [DF]4 | %4
 [EG]3 [DG] [CF]2 [FB]2 | [E=A]2 [Ge]2 d2 c2 | [GB]2 E2 [CA]2 [DF]2 | E8 |] %8
V:2
 x8 | x8 | x8 | x8 | x8 | x4 ^F4 | x2 E2 x4 | E8 |] %8
V:3
 [E,B,]2 [F,B,]2 [G,B,]2 A,2 | [F,A,]2 [E,B,]2 B,4 | [E,B,]2 [B,,A,]2 [C,G,]2 [B,,B,]2 | %3
 [E,B,]2 [A,,C]2 [B,,B,]4 | [E,B,]3 [E,B,] [E,=A,]2 [D,B,]2 | [C,C]2 [C,B,]2 [D,=A,]4 | %6
 [E,G,]2 [C,G,]2 [A,,F,]2 [B,,A,]2 | [E,G,]8 |] %8
V:4
 x6 A,2 | x4 D,2 B,,2 | x8 | x8 | x8 | x8 | x8 | x8 |] %8

